**harm	**harte	**timestamp	**phrase	**leadinstrument	**kern
*M4/4	*M4/4	*	*	*	*
*c:	*c:	*	*	*	*c:
1r;	N	0	.	r	1r;
=1	=1	=1	=1	=1	=1
*>A_intro	*>A_intro	*>A_intro	*>A_intro	*>A_intro	*>A_intro
1iv	F:min	1.439	newline	synthesizer	1F 1a- 1cc
=2	=2	=2	=2	=2	=2
1i	C:min	3.528	.	synthesizer	1C 1e- 1g
=3	=3	=3	=3	=3	=3
2iv	F:min	5.617	.	synthesizer	2F 2a- 2cc
2v	G:min	6.662	.	synthesizer	2G 2b- 2dd
=4	=4	=4	=4	=4	=4
2v	G:min	7.706	.	synthesizer	2G 2b- 2dd
2i	C:min	8.751	.	synthesizer	2C 2e- 2g
=5	=5	=5	=5	=5	=5
1iv	F:min	9.796	newline	synthesizer	1F 1a- 1cc
=6	=6	=6	=6	=6	=6
1i	C:min	11.879	.	synthesizer	1C 1e- 1g
=7	=7	=7	=7	=7	=7
2iv	F:min	13.963	.	synthesizer	2F 2a- 2cc
2v	G:min	15.005	.	synthesizer	2G 2b- 2dd
=8	=8	=8	=8	=8	=8
2v	G:min	16.047	.	synthesizer	2G 2b- 2dd
2i	C:min	17.089	.	synthesizer	2C 2e- 2g
=9	=9	=9	=9	=9	=9
1iv	F:min	18.13	newline	synthesizer	1F 1a- 1cc
=10	=10	=10	=10	=10	=10
1i	C:min	20.227	.	synthesizer	1C 1e- 1g
=11	=11	=11	=11	=11	=11
2iv	F:min	22.324	.	synthesizer	2F 2a- 2cc
2v	G:min	23.372	.	synthesizer	2G 2b- 2dd
=12	=12	=12	=12	=12	=12
2v	G:min	24.421	.	synthesizer	2G 2b- 2dd
2i	C:min	25.469	.	synthesizer	2C 2e- 2g
=13	=13	=13	=13	=13	=13
1iv	F:min	26.517	newline	synthesizer	1F 1a- 1cc
=14	=14	=14	=14	=14	=14
1i	C:min	28.604	.	synthesizer	1C 1e- 1g
=15	=15	=15	=15	=15	=15
2iv	F:min	30.691	.	synthesizer	2F 2a- 2cc
2v	G:min	31.735	.	synthesizer	2G 2b- 2dd
=16	=16	=16	=16	=16	=16
2v	G:min	32.778	.	synthesizer	2G 2b- 2dd
2i	C:min	33.822	.	synthesizer	2C 2e- 2g
=17	=17	=17	=17	=17	=17
1iv	F:min	34.866	newline	voice	1F 1a- 1cc
=18	=18	=18	=18	=18	=18
1i	C:min	36.946	.	voice	1C 1e- 1g
=19	=19	=19	=19	=19	=19
2iv	F:min	39.027	.	voice	2F 2a- 2cc
2v	G:min	40.068	.	voice	2G 2b- 2dd
=20	=20	=20	=20	=20	=20
2v	G:min	41.108	.	voice	2G 2b- 2dd
2i	C:min	42.149	.	voice	2C 2e- 2g
=21	=21	=21	=21	=21	=21
1iv	F:min	43.189	newline	voice	1F 1a- 1cc
=22	=22	=22	=22	=22	=22
1i	C:min	45.273	.	voice	1C 1e- 1g
=23	=23	=23	=23	=23	=23
2iv	F:min	47.357	.	voice	2F 2a- 2cc
2v	G:min	48.399	.	voice	2G 2b- 2dd
=24	=24	=24	=24	=24	=24
2v	G:min	49.441	.	voice	2G 2b- 2dd
2i	C:min	50.483	.	voice	2C 2e- 2g
=25	=25	=25	=25	=25	=25
*>B_verse	*>B_verse	*>B_verse	*>B_verse	*>B_verse	*>B_verse
1iv	F:min	51.525	newline	voice	1F 1a- 1cc
=26	=26	=26	=26	=26	=26
1i	C:min	53.621	.	voice	1C 1e- 1g
=27	=27	=27	=27	=27	=27
2iv	F:min	55.716	.	voice	2F 2a- 2cc
2v	G:min	56.764	.	voice	2G 2b- 2dd
=28	=28	=28	=28	=28	=28
2v	G:min	57.812	.	voice	2G 2b- 2dd
2i	C:min	58.86	.	voice	2C 2e- 2g
=29	=29	=29	=29	=29	=29
1iv	F:min	59.907	newline	voice	1F 1a- 1cc
=30	=30	=30	=30	=30	=30
1i	C:min	62	.	voice	1C 1e- 1g
=31	=31	=31	=31	=31	=31
2iv	F:min	64.092	.	voice	2F 2a- 2cc
2v	G:min	65.138	.	voice	2G 2b- 2dd
=32	=32	=32	=32	=32	=32
2v	G:min	66.185	.	voice	2G 2b- 2dd
2i	C:min	67.231	.	voice	2C 2e- 2g
=33	=33	=33	=33	=33	=33
*>C_prechorus	*>C_prechorus	*>C_prechorus	*>C_prechorus	*>C_prechorus	*>C_prechorus
1-VI	A-:maj	68.277	newline	voice	1A-- 1cc- 1ee--
=34	=34	=34	=34	=34	=34
1-VII	B-:maj	70.371	.	voice	1B- 1dd 1ff
=35	=35	=35	=35	=35	=35
1v	G:min	72.465	.	voice	1G 1b- 1dd
=36	=36	=36	=36	=36	=36
1I	C:maj	74.559	.	voice	1C 1e 1g
=37	=37	=37	=37	=37	=37
1-VI	A-:maj	76.653	newline	voice	1A-- 1cc- 1ee--
=38	=38	=38	=38	=38	=38
1-VII	B-:maj	78.736	.	voice	1B- 1dd 1ff
=39	=39	=39	=39	=39	=39
1v	G:min	80.819	.	voice	1G 1b- 1dd
=40	=40	=40	=40	=40	=40
1-VII	B-:sus4(b7)	82.902	.	voice	1B- 1dd 1ff
=41	=41	=41	=41	=41	=41
*>D_chorus	*>D_chorus	*>D_chorus	*>D_chorus	*>D_chorus	*>D_chorus
1iv	F:min	84.985	newline	voice	1F 1a- 1cc
=42	=42	=42	=42	=42	=42
1i	C:min	87.067	.	voice	1C 1e- 1g
=43	=43	=43	=43	=43	=43
2iv	F:min	89.149	.	voice	2F 2a- 2cc
2v	G:min	90.191	.	voice	2G 2b- 2dd
=44	=44	=44	=44	=44	=44
2v	G:min	91.232	.	voice	2G 2b- 2dd
2i	C:min	92.273	.	voice	2C 2e- 2g
=45	=45	=45	=45	=45	=45
1iv	F:min	93.314	newline	voice	1F 1a- 1cc
=46	=46	=46	=46	=46	=46
1i	C:min	95.412	.	voice	1C 1e- 1g
=47	=47	=47	=47	=47	=47
2iv	F:min	97.51	.	voice	2F 2a- 2cc
2v	G:min	98.56	.	voice	2G 2b- 2dd
=48	=48	=48	=48	=48	=48
2v	G:min	99.609	.	voice	2G 2b- 2dd
2i	C:min	100.658	.	voice	2C 2e- 2g
=49	=49	=49	=49	=49	=49
1iv	F:min	101.707	newline	voice	1F 1a- 1cc
=50	=50	=50	=50	=50	=50
1i	C:min	103.796	.	voice	1C 1e- 1g
=51	=51	=51	=51	=51	=51
2iv	F:min	105.885	.	voice	2F 2a- 2cc
2v	G:min	106.929	.	voice	2G 2b- 2dd
=52	=52	=52	=52	=52	=52
2v	G:min	107.974	.	voice	2G 2b- 2dd
2i	C:min	109.018	.	voice	2C 2e- 2g
=53	=53	=53	=53	=53	=53
1iv	F:min	110.063	newline	voice	1F 1a- 1cc
=54	=54	=54	=54	=54	=54
1i	C:min	112.144	.	voice	1C 1e- 1g
=55	=55	=55	=55	=55	=55
2iv	F:min	114.225	.	voice	2F 2a- 2cc
2v	G:min	115.265	.	voice	2G 2b- 2dd
=56	=56	=56	=56	=56	=56
2v	G:min	116.306	.	voice	2G 2b- 2dd
2i	C:min	117.346	.	voice	2C 2e- 2g
=57	=57	=57	=57	=57	=57
*>A_interlude	*>A_interlude	*>A_interlude	*>A_interlude	*>A_interlude	*>A_interlude
1iv	F:min	118.387	newline	synthesizer	1F 1a- 1cc
=58	=58	=58	=58	=58	=58
1i	C:min	120.474	.	synthesizer	1C 1e- 1g
=59	=59	=59	=59	=59	=59
2iv	F:min	122.561	.	synthesizer	2F 2a- 2cc
2v	G:min	123.604	.	synthesizer	2G 2b- 2dd
=60	=60	=60	=60	=60	=60
2v	G:min	124.648	.	synthesizer	2G 2b- 2dd
2i	C:min	125.691	.	synthesizer	2C 2e- 2g
=61	=61	=61	=61	=61	=61
*>B_verse	*>B_verse	*>B_verse	*>B_verse	*>B_verse	*>B_verse
1iv	F:min	126.735	newline	voice	1F 1a- 1cc
=62	=62	=62	=62	=62	=62
1i	C:min	128.826	.	voice	1C 1e- 1g
=63	=63	=63	=63	=63	=63
2iv	F:min	130.918	.	voice	2F 2a- 2cc
2v	G:min	131.964	.	voice	2G 2b- 2dd
=64	=64	=64	=64	=64	=64
2v	G:min	133.01	.	voice	2G 2b- 2dd
2i	C:min	134.056	.	voice	2C 2e- 2g
=65	=65	=65	=65	=65	=65
1iv	F:min	135.102	newline	voice	1F 1a- 1cc
=66	=66	=66	=66	=66	=66
1i	C:min	137.184	.	voice	1C 1e- 1g
=67	=67	=67	=67	=67	=67
2iv	F:min	139.265	.	voice	2F 2a- 2cc
2v	G:min	140.306	.	voice	2G 2b- 2dd
=68	=68	=68	=68	=68	=68
2v	G:min	141.347	.	voice	2G 2b- 2dd
2i	C:min	142.388	.	voice	2C 2e- 2g
=69	=69	=69	=69	=69	=69
*>C_prechorus	*>C_prechorus	*>C_prechorus	*>C_prechorus	*>C_prechorus	*>C_prechorus
1-VI	A-:maj	143.429	newline	voice	1A-- 1cc- 1ee--
=70	=70	=70	=70	=70	=70
1-VII	B-:maj	145.524	.	voice	1B- 1dd 1ff
=71	=71	=71	=71	=71	=71
1v	G:min	147.619	.	voice	1G 1b- 1dd
=72	=72	=72	=72	=72	=72
1I	C:maj	149.713	.	voice	1C 1e 1g
=73	=73	=73	=73	=73	=73
1-VI	A-:maj	151.808	newline	voice	1A-- 1cc- 1ee--
=74	=74	=74	=74	=74	=74
1-VII	B-:maj	153.901	.	voice	1B- 1dd 1ff
=75	=75	=75	=75	=75	=75
1v	G:min	155.994	.	voice	1G 1b- 1dd
=76	=76	=76	=76	=76	=76
1-VII	B-:sus4(b7)	158.087	.	voice	1B- 1dd 1ff
=77	=77	=77	=77	=77	=77
*>D_chorus	*>D_chorus	*>D_chorus	*>D_chorus	*>D_chorus	*>D_chorus
1iv	F:min	160.18	newline	voice	1F 1a- 1cc
=78	=78	=78	=78	=78	=78
1i	C:min	162.251	.	voice	1C 1e- 1g
=79	=79	=79	=79	=79	=79
2iv	F:min	164.323	.	voice	2F 2a- 2cc
2v	G:min	165.358	.	voice	2G 2b- 2dd
=80	=80	=80	=80	=80	=80
2v	G:min	166.394	.	voice	2G 2b- 2dd
2i	C:min	167.43	.	voice	2C 2e- 2g
=81	=81	=81	=81	=81	=81
1iv	F:min	168.465	newline	voice	1F 1a- 1cc
=82	=82	=82	=82	=82	=82
1i	C:min	170.571	.	voice	1C 1e- 1g
=83	=83	=83	=83	=83	=83
2iv	F:min	172.678	.	voice	2F 2a- 2cc
2v	G:min	173.731	.	voice	2G 2b- 2dd
=84	=84	=84	=84	=84	=84
2v	G:min	174.784	.	voice	2G 2b- 2dd
2i	C:min	175.837	.	voice	2C 2e- 2g
=85	=85	=85	=85	=85	=85
1iv	F:min	176.89	newline	voice	1F 1a- 1cc
=86	=86	=86	=86	=86	=86
1i	C:min	178.972	.	voice	1C 1e- 1g
=87	=87	=87	=87	=87	=87
2iv	F:min	181.054	.	voice	2F 2a- 2cc
2v	G:min	182.095	.	voice	2G 2b- 2dd
=88	=88	=88	=88	=88	=88
2v	G:min	183.136	.	voice	2G 2b- 2dd
2i	C:min	184.176	.	voice	2C 2e- 2g
=89	=89	=89	=89	=89	=89
1iv	F:min	185.217	newline	voice	1F 1a- 1cc
=90	=90	=90	=90	=90	=90
1i	C:min	187.303	.	voice	1C 1e- 1g
=91	=91	=91	=91	=91	=91
2iv	F:min	189.389	.	voice	2F 2a- 2cc
2v	G:min	190.433	.	voice	2G 2b- 2dd
=92	=92	=92	=92	=92	=92
2v	G:min	191.476	.	voice	2G 2b- 2dd
2i	C:min	192.519	.	voice	2C 2e- 2g
=93	=93	=93	=93	=93	=93
*>A_interlude	*>A_interlude	*>A_interlude	*>A_interlude	*>A_interlude	*>A_interlude
1iv	F:min	193.562	newline	synthesizer	1F 1a- 1cc
=94	=94	=94	=94	=94	=94
1i	C:min	195.66	.	synthesizer	1C 1e- 1g
=95	=95	=95	=95	=95	=95
2iv	F:min	197.757	.	synthesizer	2F 2a- 2cc
2v	G:min	198.806	.	synthesizer	2G 2b- 2dd
=96	=96	=96	=96	=96	=96
2v	G:min	199.855	.	synthesizer	2G 2b- 2dd
2i	C:min	200.904	.	synthesizer	2C 2e- 2g
=97	=97	=97	=97	=97	=97
1iv	F:min	201.953	newline	synthesizer	1F 1a- 1cc
=98	=98	=98	=98	=98	=98
1i	C:min	204.038	.	synthesizer	1C 1e- 1g
=99	=99	=99	=99	=99	=99
2iv	F:min	206.122	.	synthesizer	2F 2a- 2cc
2v	G:min	207.164	.	synthesizer	2G 2b- 2dd
=100	=100	=100	=100	=100	=100
2v	G:min	208.207	.	synthesizer	2G 2b- 2dd
2i	C:min	209.249	.	synthesizer	2C 2e- 2g
=101	=101	=101	=101	=101	=101
*>D_chorus	*>D_chorus	*>D_chorus	*>D_chorus	*>D_chorus	*>D_chorus
1iv	F:min	210.291	newline	synthesizer	1F 1a- 1cc
=102	=102	=102	=102	=102	=102
1i	C:min	212.382	.	synthesizer	1C 1e- 1g
=103	=103	=103	=103	=103	=103
2iv	F:min	214.472	.	synthesizer	2F 2a- 2cc
2v	G:min	215.517	.	synthesizer	2G 2b- 2dd
=104	=104	=104	=104	=104	=104
2v	G:min	216.563	.	synthesizer	2G 2b- 2dd
2i	C:min	217.608	.	synthesizer	2C 2e- 2g
=105	=105	=105	=105	=105	=105
1iv	F:min	218.653	newline	synthesizer	1F 1a- 1cc
=106	=106	=106	=106	=106	=106
1i	C:min	220.743	.	synthesizer	1C 1e- 1g
=107	=107	=107	=107	=107	=107
2iv	F:min	222.832	.	synthesizer	2F 2a- 2cc
2v	G:min	223.877	.	synthesizer	2G 2b- 2dd
=108	=108	=108	=108	=108	=108
2v	G:min	224.922	.	synthesizer	2G 2b- 2dd
2i	C:min	225.966	.	synthesizer	2C 2e- 2g
=109	=109	=109	=109	=109	=109
1iv	F:min	227.011	newline	synthesizer	1F 1a- 1cc
=110	=110	=110	=110	=110	=110
1i	C:min	229.097	.	synthesizer	1C 1e- 1g
=111	=111	=111	=111	=111	=111
2iv	F:min	231.183	.	synthesizer	2F 2a- 2cc
2v	G:min	232.226	.	synthesizer	2G 2b- 2dd
=112	=112	=112	=112	=112	=112
2v	G:min	233.269	.	synthesizer	2G 2b- 2dd
2i	C:min	234.313	.	synthesizer	2C 2e- 2g
=113	=113	=113	=113	=113	=113
1iv	F:min	235.356	newline	synthesizer	1F 1a- 1cc
=114	=114	=114	=114	=114	=114
1i	C:min	237.44	.	synthesizer	1C 1e- 1g
=115	=115	=115	=115	=115	=115
2iv	F:min	239.525	.	synthesizer	2F 2a- 2cc
2v	G:min	240.567	.	synthesizer	2G 2b- 2dd
=116	=116	=116	=116	=116	=116
2v	G:min	241.609	.	synthesizer	2G 2b- 2dd
2i	C:min	242.651	.	synthesizer	2C 2e- 2g
=117	=117	=117	=117	=117	=117
*>D_chorus	*>D_chorus	*>D_chorus	*>D_chorus	*>D_chorus	*>D_chorus
1iv	F:min	243.693	newline	synthesizer	1F 1a- 1cc
=118	=118	=118	=118	=118	=118
1i	C:min	245.79	.	synthesizer	1C 1e- 1g
=119	=119	=119	=119	=119	=119
2iv	F:min	247.887	.	synthesizer	2F 2a- 2cc
2v	G:min	248.935	.	synthesizer	2G 2b- 2dd
=120	=120	=120	=120	=120	=120
2v	G:min	249.983	.	synthesizer	2G 2b- 2dd
2i	C:min	251.032	.	synthesizer	2C 2e- 2g
=121	=121	=121	=121	=121	=121
1iv	F:min	252.08	newline	synthesizer	1F 1a- 1cc
=122	=122	=122	=122	=122	=122
1i	C:min	254.164	.	synthesizer	1C 1e- 1g
=123	=123	=123	=123	=123	=123
2iv	F:min	256.249	.	synthesizer	2F 2a- 2cc
2v	G:min	257.291	.	synthesizer	2G 2b- 2dd
=124	=124	=124	=124	=124	=124
2v	G:min	258.333	.	synthesizer	2G 2b- 2dd
2i	C:min	259.375	.	synthesizer	2C 2e- 2g
=125	=125	=125	=125	=125	=125
1iv	F:min	260.417	newline	synthesizer	1F 1a- 1cc
=126	=126	=126	=126	=126	=126
1i	C:min	262.512	.	synthesizer	1C 1e- 1g
=127	=127	=127	=127	=127	=127
2iv	F:min	264.607	.	synthesizer	2F 2a- 2cc
2v	G:min	265.654	.	synthesizer	2G 2b- 2dd
=128	=128	=128	=128	=128	=128
2v	G:min	266.701	.	synthesizer	2G 2b- 2dd
2i	C:min	267.749	.	synthesizer	2C 2e- 2g
=129	=129	=129	=129	=129	=129
1iv	F:min	268.796	newline	synthesizer	1F 1a- 1cc
=130	=130	=130	=130	=130	=130
1i	C:min	270.876	.	synthesizer	1C 1e- 1g
=131	=131	=131	=131	=131	=131
2iv	F:min	272.957	.	synthesizer	2F 2a- 2cc
2v	G:min	273.997	.	synthesizer	2G 2b- 2dd
=132	=132	=132	=132	=132	=132
2v	G:min	275.037	.	synthesizer	2G 2b- 2dd
2i	C:min	276.077	.	synthesizer	2C 2e- 2g
=133	=133	=133	=133	=133	=133
*>D_chorus	*>D_chorus	*>D_chorus	*>D_chorus	*>D_chorus	*>D_chorus
1iv	F:min	277.118	newline	synthesizer	1F 1a- 1cc
=134	=134	=134	=134	=134	=134
1i	C:min	279.208	.	synthesizer	1C 1e- 1g
=135	=135	=135	=135	=135	=135
2iv	F:min	281.299	.	synthesizer	2F 2a- 2cc
2v	G:min	282.345	.	synthesizer	2G 2b- 2dd
=136	=136	=136	=136	=136	=136
2v	G:min	283.39	.	synthesizer	2G 2b- 2dd
2i	C:min	284.436	.	synthesizer	2C 2e- 2g
=137	=137	=137	=137	=137	=137
*>_fadeout	*>_fadeout	*>_fadeout	*>_fadeout	*>_fadeout	*>_fadeout
1iv	F:min	285.481	newline	synthesizer	1F 1a- 1cc
=138	=138	=138	=138	=138	=138
1i	C:min	287.572	.	synthesizer	1C 1e- 1g
=139	=139	=139	=139	=139	=139
2iv	F:min	289.663	.	synthesizer	2F 2a- 2cc
2v	G:min	290.708	.	synthesizer	2G 2b- 2dd
=140	=140	=140	=140	=140	=140
2v	G:min	291.753	.	synthesizer	2G 2b- 2dd
2i	C:min	292.799	.	synthesizer	2C 2e- 2g
=141	=141	=141	=141	=141	=141
1iv	F:min	293.844	newline	voice	1F 1a- 1cc
=142	=142	=142	=142	=142	=142
1i	C:min	295.958	.	voice	1C 1e- 1g
=143	=143	=143	=143	=143	=143
2iv	F:min	298.073	.	voice	2F 2a- 2cc
2v	G:min	299.13	.	voice	2G 2b- 2dd
1r;	N	300.188	.	r	1r;
1r;	N	303.882	.	r	1r;
*-	*-	*-	*-	*-	*-
!!!OTL: I'm In Love
!!!COC: Evelyn Champagne King
!!!BillboardChartDate: 1981/08/15
!!!BillboardPeak: 40
!!!BillboardWeeksOnChart: 14
!!!SampleTargetRank: 62
!!!SampleActualRank: 61
!!!SampleID#: 0482
!!!RDF**harmony: **recip + pitch class of root + harmonic quality
!!!RDF**harte: Chris Harte's syntax, used by MIREX
!!!RDF**phrase: newline = linebreak in original McGill transcription
!!!RDF**timestamp: McGill audio timestamp in seconds
!!!RDF**leadinstrument: original McGill primary instrumentation annotation
!!!RDT: 2017/01/12/
!!!ENC: Nathaniel Condit-Schultz
!!!EST: Awating manual error checking and editing.
